!!!COM: Ernest Chausson
!!!CNT: Francais
!!!TXO: Francais
!!!OTL: La Chanson bien douce
!!!LYR: Paul Verlaine
!!!ENC: Jacob Pegg
!!!YOR: 20 Songs for Voice and Piano, International Music Company, New York City, January, 1952
!!!ODT: 1898/
!!NB: Vocal melody and text only encoded.
**kern	**silbe
*clef G2	*
*k[b-e-a-]	*
*M3/4	*
=1	=1
8r	.
{16f	{E-
16f	-cou-
8a-	-tez
16a-	la
16a-	chan-
8b-	-son
8cc	bien
=2	=2
4.dd	dou-
8dd	-ce
8ee-	Qui
8dd	ne
=3	=3
4cc	pleu-
8b-	-re
8a-	que
8b-	pour
8cc	vous
=4	=4
(2cc	plai-
4f)	|
=5	=5
4f}	-re}
4r	.
4r	.
=6	=6
16r	.
{16g-	{Elle
16a-	est
16b-	dis-
8b-	-cre-
8b-	-te,
8r	.
24cc	elle
24dd-	est
24ee-	le/-
=7	=7
[4ee-	-ge\re:
8.ee-]	|
16ee-	Un
8dd-	fris-
8cc-	-son
=8	=8
4.bn	d'eau
8g	sur
8g	de
8g	la
=9	=9
4.g	mous-
8g}	-se}
4r	.
=10	=10
2.r	.
=11	=11
8r	.
{8f	{La
8g	voix
8a-	vous
8a-	fut
8bn	con-
=12	=12
4.g	-nue
8f	et
[4dd-	che\-
=13	=13
4.dd-]	|
[8g	re,
8g]}	|}
8r	.
=14	=14
16r	.
{16an	{Mais
16an	a\
16an	pre/-
4an	-sent
12an	elle
12an	est
12an	voi-
=15	=15
4.a-	-le/e
8a-	Comme
8an	u-
8g	-ne
=16	=16
8.f	veu-
16f	-ve
8f	de/-
8f	-so-
[4b-	-le/e
=17	=17
4.b-_	|
16b-]}	|}
{16b-	{Pour
8a-	tant
8g-	comme
=18	=18
8.g-	elle
16g-	en-
8a-	-co-
8b--	-re
(8b--	fie\-
8a-)	|
=19	=19
8a-}	-re}
8r	.
{16a-	{Et
16a-	dans
16a-	les
16a-	longs
8a-	plis
16b--	de
16b--	son
=20	=20
*M4/4	*
8.c-	voi-
16c-}	-le}
{8c-	{Qui
8dd-	pal-
8.b--	-pite
16b--	aux
8b--	bri-
16b--	-ses
16b--	d'au-
=21	=21
*M2/4	*
4a-	-tom-
4a-}	-ne}
=22	=22
*M3/4	*
{4.g#	{Cache
8an	et
8.bn	montre
16bn	au
=23	=23
8cc#	coeur
16cc#	qui
16cc#	s'e/-
(4.cc#	-ton-
8f#)	|
=24	=24
8f#}	-ne}
8r	.
8r	.
{8f#	{La
8g#	ve/-
8an	-ri-
=25	=25
4.an	-te/
[8b-	comme
12bn]	|
12an	une
12g	e/-
=26	=26
4g	-toi-
8g}	-le.}
8r	.
4r	.
=27	=27
8r	.
{16b-	{El-
16b-	-le
8.dd	dit,
16b-	la
8a-	voix
16a-	re-
16a-	-con-
=28	=28
4.g	-nue
8an	Que
8an	la
8an	bon-
=29	=29
4.cc	-te/
[8f	c'est
12f]	|
12g	no-
12a-	-tre
=30	=30
2g#}	vie}
16r	.
{16en	{Que
16en	de
16en	la
=31	=31
4en	haine
8f#	et
16f#	de
16f#	l'en-
[4f#	-vie
=32	=32
8f#]	|
16g#	Rien
16an	ne
4g#	res-
8f#	-te,
16r	.
16en	la
=33	=33
8en	mort
8d	ve-
4d}	-nue}
4r	.
!! mm 34-37 piano alone
=38	=38
8r	.
{16f	{Ac-
16f	-cueil-
8.a-	-lez
16a-	la
8a-	vox
16b-	qui
16cc	per-
=39	=39
4dd	-sis-
16dd	-te
16dd	Dans
16ee-	son
16dd	na-
16dd	i2f
16cc	e/-
16cc	-pi-
16b-	-tha-
=40	=40
2.cc	-la-
=41	=41
4f}	-me}
4r	.
4r	.
=42	=42
8r	.
16r	.
{16f#	{Al-
2f#	-lez,
=43	=43
8en	rien
16f#	n'est
16g#	meil-
8g#	-leur
8g#	a\
[4an	l'a^-
=44	=44
8an]	|
8an	-me
8bn	Que
8cc	de
8bn	faire
8an	une
=45	=45
4.an	a^-
4g	-me
8f	moins
=46	=46
2f	tris-
4d}	-te}
=47	=47
8r	.
{8f	{Elle
8g	est
8g	en
4a-	peine
=48	=48
8cc-	et
16cc-	de
16cc-	pas-
8b-	-sa-
8b-}	-ge}
{[4a-	{L'a^-
=49	=49
8a-]	|
16g-	-me
16f-	qui
8.en	souf-
16en	-fre
8f#	sans
8gn	co-
=50	=50
2g	-le\-
8g}	-re}
8r	.
=51	=51
8r	.
{8een	{Et
8dd	com-
8cc	-me
8b-	sa
8an	mo-
=52	=52
[4an	-rale
8an]	|
8g	est
[4g	clai-
=53	=53
4g]	|
4f}	-re...}
4r	.
=54	=54
4r	.
4r	.
8r	.
{16cc	{E-
16cc	-cou-
=55	=55
[4dd-	-tez
12dd-]	|
12dd-	la
12dd-	chan-
8cc-	-son
8cc-	bien
=56	=56
[2.b-	sage.
=57	=57
2.b-]}	|}
*-	*-
